X:1
T:Black Pat's
C:Tommy Peoples
M:4/4
K:Gmaj
   G2Bd    eBdB         | Ad{d}BA GEDE               | G2      B/2c/2d edBA |  Bdgb    ab/2a/2 ga    |
   bg       g/2g/2g ageg | dege    dBAB               | G2      B/2c/2d eBdB |  Ad{d}BA GEDE         :|
   G3A      {A}GEDE      | GFGA    B       ee/2e/2e   | d2BG    dGBG         |  Ad{d}BA GEDE          |
   GFGA     {A}GEDE      | GFGA    Bdga               | bg      g/2g/2g ageg |  dgba    gdeg          |
   d3B      {c}BAGE      | DG      G/2G/2G Be e/2e/2e | d2BG    dGBG         |  Ad{d}BA GEDE          |
   GFGA     {A}GEDE      | GFGA    Bdga               | bg      g/2g/2g ageg |  dgba    g2ga         ||
|: b2{c'}bg egde         | gedB    G4                 | b2gd    bdgd         |  ea      a/2a/2a abga  |
   b2{c'}bg egde         | gedB    dega               | b/2a/2g ag      egdB |1 Ad{d}BA GABd         :|2 Ad{d}BA GEDE | G8 |]
